X: 177
T: Miss Charmichael
T: Jig, F
C: William Shepard
L: 1/16
M: 6/8
K: F
|: c2| f4a2 f4a2| b4g2 g4f2| e2c2c2 c2d2e2| f2a2g2 f2c2A2| f4a2 f4a2| b4g2 g4f2| e2c2c2 c2d2e2| f2a2g2 f4:| 
|: A2| c2A2A2 A2f2e2| d2B2B2 B2g2f2| e2c2c2 c2d2e2| f2a2g2 f2c2A2| c2A2A2 A2f2e2| d2B2B2 B2g2f2| e2d2c2 c2a2g2| f6 f4:| 
B: Winston "Scotty" Fitzgerald
D: Buddy MacMaster, Glencoe Hall, BM-91 (as Cullen House)
